src/assets/blue-alert.svg

<svg xmlns="http://www.w3.org/2000/svg" width="14" height="15" viewBox="0 0 14 15" fill="none">
<ellipse cx="7" cy="7.12702" rx="7" ry="7.12702" fill="#1855D1"/>
<path d="M7.35199 3.07996V6.24796L7.18399 8.47996H6.17599L6.00799 6.24796V3.07996H7.35199ZM6.67999 9.41596C6.95199 9.41596 7.16799 9.49596 7.32799 9.65596C7.49599 9.80796 7.57999 10.012 7.57999 10.268C7.57999 10.524 7.49599 10.728 7.32799 10.88C7.16799 11.032 6.95199 11.108 6.67999 11.108C6.41599 11.108 6.19999 11.032 6.03199 10.88C5.87199 10.728 5.79199 10.524 5.79199 10.268C5.79199 10.012 5.87199 9.80796 6.03199 9.65596C6.19999 9.49596 6.41599 9.41596 6.67999 9.41596Z" fill="white"/>
</svg>

<svg fill="none" height="15" viewBox="0 0 14 15" width="14" xmlns="http://www.w3.org/2000/svg"><ellipse cx="7" cy="7.12702" fill="#1855d1" rx="7" ry="7.12702"/><path d="m7.35199 3.07996v3.168l-.168 2.232h-1.008l-.168-2.232v-3.168zm-.672 6.336c.272 0 .488.08.648.24.168.152.252.35604.252.61204s-.084.46-.252.612c-.16.152-.376.228-.648.228-.264 0-.48-.076-.648-.228-.16-.152-.24-.356-.24-.612s.08-.46004.24-.61204c.168-.16.384-.24.648-.24z" fill="#fff"/></svg>
